X:1
T:The Cruel Ship's Carpenter
M:4/4
L:1/4
K:F
F/2-F/2| F3/2- E/2 C F| F3/2- E/2 C A,| B,3/2- F/2 F E| F3F/2-F/2|\
 F3/2 G/2 A B| c3/2 c- B/2A/2-G/2| F3/2 c- A/2 F| B3 c| c3/2 c/2c/2-B/2A/2-G/2|\
 A3/2 B- A/2 G| F3/2 G F/2 D| C3A/2-A/2| A3/2 B- A/2 G| F E C A,| B, F F E|\
 F3||
